packages/kaspersky-hexa-ui-icons/src/iconsSVGs/24/MacOs.svg

<svg width="24" height="24" viewBox="0 0 24 24" fill="none" xmlns="http://www.w3.org/2000/svg">
<path d="M16 8.99995C16.5523 8.99995 17 8.55223 17 7.99995C17 7.44766 16.5523 6.99995 16 6.99995C15.4477 6.99995 15 7.44766 15 7.99995C15 8.55223 15.4477 8.99995 16 8.99995Z" fill="black"/>
<path d="M9 7.99995C9 8.55223 8.55228 8.99995 8 8.99995C7.44772 8.99995 7 8.55223 7 7.99995C7 7.44766 7.44772 6.99995 8 6.99995C8.55228 6.99995 9 7.44766 9 7.99995Z" fill="black"/>
<path fill-rule="evenodd" clip-rule="evenodd" d="M17 2.99995H12.5185C12.5054 2.99969 12.4924 2.99969 12.4794 2.99995H7C4.79086 2.99995 3 4.79081 3 6.99995V16.9999C3 19.2091 4.79086 20.9999 7 20.9999H11.9843C11.9939 21.0001 12.0035 21.0001 12.0132 20.9999H17C19.2091 20.9999 21 19.2091 21 16.9999V6.99995C21 4.79081 19.2091 2.99995 17 2.99995ZM17 18.9999H12.9251C12.9033 18.3123 12.9489 17.6143 13.0373 16.9353C13.8468 16.8363 14.57 16.6385 15.1323 16.4461C15.5327 16.3091 15.8606 16.1716 16.0915 16.0668C16.2213 16.0079 16.3504 15.9473 16.4758 15.8795C16.4758 15.8795 17.0625 15.5613 17.3558 15.4023L16.4023 13.6442C15.7747 13.9845 15.1622 14.322 14.4847 14.5538C14.1777 14.6589 13.8243 14.7618 13.4416 14.8422C13.4699 14.7296 13.4988 14.6188 13.5281 14.5099C13.7373 13.7329 13.9616 13.0751 14.1329 12.6134C14.221 12.3757 14.312 12.1386 14.4137 11.9063L14.4141 11.9054L15.0388 10.4999H12.2198L13.3198 4.99995H17C18.1046 4.99995 19 5.89538 19 6.99995V16.9999C19 18.1045 18.1046 18.9999 17 18.9999ZM11.3568 14.9669C11.4329 14.6242 11.5142 14.2971 11.5969 13.99C11.7481 13.4282 11.9065 12.9238 12.0508 12.4999H9.7802L11.2802 4.99995H7C5.89543 4.99995 5 5.89538 5 6.99995V16.9999C5 18.1045 5.89543 18.9999 7 18.9999H10.9244C10.9058 18.3037 10.9451 17.6106 11.0216 16.9423C10.1883 16.8459 9.44354 16.6432 8.86765 16.4461C8.46732 16.3091 8.13938 16.1716 7.90849 16.0668C7.78261 16.0097 7.65781 15.95 7.53548 15.8855L7.528 15.8816L7.52529 15.8801L7.52419 15.8795C7.52419 15.8795 6.93754 15.5613 6.64422 15.4023L7.59769 13.6442L8.48397 14.1247C8.5484 14.1583 8.93812 14.3563 9.51525 14.5538C10.0268 14.7289 10.6665 14.8976 11.3568 14.9669Z" fill="black"/>
</svg>

<svg xmlns="http://www.w3.org/2000/svg" width="24" height="24" fill="none" viewBox="0 0 24 24"><path fill="#000" d="M16 9c.552 0 1-.448 1-1s-.448-1-1-1-1 .448-1 1 .448 1 1 1M9 8c0 .552-.448 1-1 1s-1-.448-1-1 .448-1 1-1 1 .448 1 1"/><path fill="#000" fill-rule="evenodd" d="M17 3h-4.4815a1 1 0 0 0-.0391 0H7C4.7909 3 3 4.7908 3 7v9.9999c0 2.2092 1.7909 4 4 4h4.9843a1 1 0 0 0 .0289 0H17c2.2091 0 4-1.7908 4-4v-10c0-2.209-1.7909-4-4-4m0 15.9999h-4.0749c-.0218-.6876.0238-1.3856.1122-2.0646.8095-.099 1.5327-.2968 2.095-.4892.4004-.137.7283-.2745.9592-.3793.1298-.0589.2589-.1195.3843-.1873l.88-.4772-.9535-1.7581c-.6276.3403-1.2401.6778-1.9176.9096a8.9 8.9 0 0 1-1.0431.2884q.0425-.169.0865-.3323c.2092-.777.4335-1.4348.6048-1.8965.0881-.2377.1791-.4748.2808-.7071l.0004-.0009.6247-1.4055h-2.819l1.1-5.5H17c1.1046 0 2 .8955 2 2v10c0 1.1046-.8954 2-2 2m-5.6432-4.033c.0761-.3427.1574-.6698.2401-.9769a24 24 0 0 1 .4539-1.4901H9.7802l1.5-7.5H7c-1.1046 0-2 .8955-2 2v10c0 1.1046.8954 2 2 2h3.9244c-.0186-.6962.0207-1.3893.0972-2.0576-.8333-.0964-1.578-.2991-2.154-.4962a10.8 10.8 0 0 1-.9591-.3793 7 7 0 0 1-.373-.1813l-.0075-.0039-.0027-.0015-.0011-.0006-.88-.4772.9535-1.7581.8863.4805c.0644.0336.4541.2316 1.0313.4291.5115.1751 1.1512.3438 1.8415.4131" clip-rule="evenodd"/></svg>
